; generated by Slic3r 1.2.9 on 2018-04-12 at 17:10:44

; external perimeters extrusion width = 0.50mm
; perimeters extrusion width = 0.58mm
; infill extrusion width = 0.58mm
; solid infill extrusion width = 0.58mm
; top infill extrusion width = 0.58mm

M107
M104 S205 ; set temperature
G28 ; home all axes
G1 Z2 F5000 ; lift nozzle

;M109 S205 
; wait for temperature to be reached
G21 ; set units to millimeters
G90 ; use absolute coordinates
M82 ; use absolute distances for extrusion
;G92 E0
G1 Z0.500 F7800.000
;G1 E-2.00000 F2400.00000
;G92 E0
G1 X31.430 Y31.895 F7800.000
;G1 E2.00000 F2400.00000
G1 X32.927 Y30.477 E2.13025 F1800.000
G1 X33.496 Y29.994 E2.17738
G1 X35.138 Y28.745 E2.30763
G1 X35.756 Y28.326 E2.35475
G1 X37.523 Y27.263 E2.48501
G1 X38.183 Y26.913 E2.53213
G1 X40.055 Y26.047 E2.66239
G1 X40.748 Y25.771 E2.70951
G1 X42.703 Y25.112 E2.83977
G1 X43.422 Y24.913 E2.88688
G1 X45.436 Y24.469 E3.01713
G1 X46.173 Y24.349 E3.06426
G1 X48.224 Y24.126 E3.19452
G1 X48.969 Y24.085 E3.24164
G1 X51.031 Y24.085 E3.37189
G1 X51.777 Y24.126 E3.41902
G1 X53.827 Y24.349 E3.54927 F1800.000
G1 X54.564 Y24.469 E3.59639
G1 X56.578 Y24.913 E3.72664
G1 X57.297 Y25.112 E3.77377
G1 X59.201 Y25.754 E3.90060
G1 X59.945 Y26.047 E3.95114
G1 X61.817 Y26.913 E4.08139
G1 X62.477 Y27.263 E4.12852
G1 X64.244 Y28.326 E4.25877
G1 X64.862 Y28.745 E4.30590
G1 X66.504 Y29.994 E4.43615
G1 X67.073 Y30.477 E4.48327
G1 X68.570 Y31.895 E4.61352
G1 X69.084 Y32.437 E4.66065
G1 X70.419 Y34.009 E4.79091
G1 X70.871 Y34.603 E4.83803
G1 X72.028 Y36.311 E4.96828
G1 X72.413 Y36.950 E5.01540
G1 X73.379 Y38.773 E5.14565
G1 X73.692 Y39.450 E5.19278
G1 X74.456 Y41.366 E5.32303
G1 X74.694 Y42.073 E5.37016
G1 X75.246 Y44.061 E5.50041
G1 X75.407 Y44.790 E5.54753
G1 X75.740 Y46.825 E5.67778
G1 X75.821 Y47.567 E5.72491
G1 X75.933 Y49.627 E5.85516
G1 X75.933 Y50.373 E5.90229
G1 X75.821 Y52.433 E6.03255
G1 X75.740 Y53.175 E6.07967
G1 X75.406 Y55.210 E6.20993
G1 X75.246 Y55.939 E6.25704
G1 X74.694 Y57.927 E6.38729
G1 X74.456 Y58.634 E6.43442
G1 X73.692 Y60.550 E6.56467
G1 X73.379 Y61.227 E6.61180
G1 X72.413 Y63.050 E6.74206
G1 X72.028 Y63.689 E6.78917
G1 X70.870 Y65.397 E6.91944
G1 X70.419 Y65.991 E6.96655
G1 X69.084 Y67.563 E7.09680
G1 X68.570 Y68.105 E7.14393
G1 X67.073 Y69.523 E7.27418
G1 X66.504 Y70.006 E7.32131
G1 X64.862 Y71.255 E7.45156
G1 X64.244 Y71.674 E7.49868
G1 X62.477 Y72.737 E7.62893
G1 X61.817 Y73.087 E7.67606
G1 X59.994 Y73.930 E7.80289
G1 X59.252 Y74.229 E7.85343
G1 X57.297 Y74.888 E7.98368
G1 X56.578 Y75.087 E8.03081
G1 X54.564 Y75.531 E8.16106
G1 X53.827 Y75.651 E8.20819
G1 X51.830 Y75.869 E8.33502
G1 X51.031 Y75.915 E8.38556
G1 X48.969 Y75.915 E8.51581
G1 X48.223 Y75.874 E8.56294
G1 X46.173 Y75.651 E8.69319
G1 X45.436 Y75.531 E8.74031
G1 X43.422 Y75.087 E8.87057
G1 X42.703 Y74.888 E8.91769
G1 X40.799 Y74.246 E9.04452
G1 X40.055 Y73.953 E9.09506
G1 X38.183 Y73.087 E9.22531
G1 X37.523 Y72.737 E9.27244
G1 X35.756 Y71.674 E9.40269
G1 X35.138 Y71.255 E9.44982
G1 X33.496 Y70.006 E9.58007
G1 X32.927 Y69.523 E9.62719
G1 X31.469 Y68.142 E9.75402
G1 X30.916 Y67.563 E9.80457
G1 X29.581 Y65.991 E9.93482
G1 X29.129 Y65.397 E9.98194
G1 X27.972 Y63.689 E10.11219
G1 X27.587 Y63.050 E10.15932
G1 X26.621 Y61.227 E10.28957
G1 X26.308 Y60.550 E10.33670
G1 X25.544 Y58.634 E10.46695
G1 X25.306 Y57.927 E10.51407
G1 X24.754 Y55.939 E10.64432
G1 X24.593 Y55.210 E10.69145
G1 X24.269 Y53.228 E10.81829
G1 X24.179 Y52.433 E10.86882
G1 X24.067 Y50.373 E10.99908
G1 X24.067 Y49.627 E11.04620
G1 X24.179 Y47.567 E11.17645
G1 X24.260 Y46.825 E11.22358
G1 X24.594 Y44.790 E11.35384
G1 X24.754 Y44.061 E11.40095
G1 X25.306 Y42.073 E11.53121
G1 X25.544 Y41.366 E11.57833
G1 X26.308 Y39.450 E11.70858
G1 X26.621 Y38.773 E11.75571
G1 X27.587 Y36.950 E11.88596
G1 X27.972 Y36.311 E11.93308
G1 X29.129 Y34.603 E12.06333
G1 X29.581 Y34.009 E12.11046
G1 X30.916 Y32.437 E12.24071
G1 X31.378 Y31.950 E12.28310
G1 E10.28310 F2400.00000
;g92 E0
G1 X60.390 Y60.773 F7800.000
G1 E2.00000 F2400.00000
G1 X59.703 Y61.424 E2.05975 F1800.000
G1 X58.411 Y62.406 E2.16223
G1 X57.021 Y63.243 E2.26471
G1 X55.548 Y63.924 E2.36719
G1 X54.010 Y64.442 E2.46967
G1 X52.425 Y64.791 E2.57215
G1 X50.811 Y64.967 E2.67464
G1 X49.189 Y64.967 E2.77712
G1 X47.575 Y64.791 E2.87960
G1 X45.990 Y64.442 E2.98208
G1 X44.452 Y63.924 E3.08456
G1 X42.979 Y63.243 E3.18704
G1 X41.589 Y62.406 E3.28953
G1 X40.297 Y61.424 E3.39201
G1 X39.118 Y60.308 E3.49449
G1 X38.068 Y59.071 E3.59697
G1 X37.157 Y57.727 E3.69945
G1 X36.397 Y56.294 E3.80193
G1 X35.796 Y54.786 E3.90442
G1 X35.353 Y53.191 E4.00893
G1 X35.099 Y51.618 E4.10956
G1 X35.013 Y50.039 E4.20939
G1 X35.099 Y48.383 E4.31414
G1 X35.362 Y46.778 E4.41682
G1 X35.796 Y45.214 E4.51930
G1 X36.397 Y43.706 E4.62178
G1 X37.157 Y42.273 E4.72427
G1 X38.068 Y40.929 E4.82675
G1 X39.118 Y39.692 E4.92923
G1 X40.297 Y38.576 E5.03171
G1 X41.557 Y37.618 E5.13171
G1 X42.976 Y36.759 E5.23646
G1 X44.452 Y36.076 E5.33914
G1 X45.990 Y35.558 E5.44162
G1 X47.575 Y35.209 E5.54411
G1 X49.189 Y35.033 E5.64659
G1 X50.811 Y35.033 E5.74907 F1800.000
G1 X52.386 Y35.205 E5.84907
G1 X54.007 Y35.557 E5.95382
G1 X55.548 Y36.076 E6.05650
G1 X57.021 Y36.757 E6.15898
G1 X58.411 Y37.594 E6.26146
G1 X59.703 Y38.576 E6.36394
G1 X60.882 Y39.692 E6.46643
G1 X61.932 Y40.929 E6.56891
G1 X62.843 Y42.273 E6.67139
G1 X63.585 Y43.672 E6.77139
G1 X64.203 Y45.211 E6.87614
G1 X64.638 Y46.778 E6.97882
G1 X64.901 Y48.379 E7.08130
G1 X64.989 Y50.000 E7.18378
G1 X64.901 Y51.621 E7.28627
G1 X64.638 Y53.222 E7.38875
G1 X64.215 Y54.748 E7.48875
G1 X63.605 Y56.291 E7.59350
G1 X62.843 Y57.727 E7.69618
G1 X61.932 Y59.071 E7.79866
G1 X60.882 Y60.308 E7.90114
G1 X60.445 Y60.722 E7.93914
G1 X59.776 Y60.125 F7800.000
G1 X59.125 Y60.742 E7.99583 F1800.000
G1 X57.910 Y61.666 E8.09220
G1 X56.602 Y62.453 E8.18857
G1 X55.217 Y63.094 E8.28494
G1 X53.771 Y63.581 E8.38131
G1 X52.280 Y63.909 E8.47768
G1 X50.763 Y64.074 E8.57405
G1 X49.237 Y64.074 E8.67041
G1 X47.720 Y63.909 E8.76678
G1 X46.229 Y63.581 E8.86315
G1 X44.783 Y63.094 E8.95952
G1 X43.398 Y62.453 E9.05589
G1 X42.090 Y61.666 E9.15226
G1 X40.875 Y60.742 E9.24863
G1 X39.767 Y59.693 E9.34500
G1 X38.779 Y58.530 E9.44137
G1 X37.923 Y57.267 E9.53774
G1 X37.208 Y55.918 E9.63410
G1 X36.643 Y54.500 E9.73047
G1 X36.227 Y53.000 E9.82881
G1 X35.988 Y51.522 E9.92333
G1 X35.907 Y50.038 E10.01719
G1 X35.988 Y48.478 E10.11583
G1 X36.235 Y46.970 E10.21232
G1 X36.643 Y45.500 E10.30869
G1 X37.208 Y44.082 E10.40505
G1 X37.923 Y42.733 E10.50142
G1 X38.779 Y41.470 E10.59779
G1 X39.767 Y40.307 E10.69416
G1 X40.875 Y39.258 E10.79053
G1 X42.060 Y38.357 E10.88450
G1 X43.396 Y37.548 E10.98313
G1 X44.783 Y36.906 E11.07962
G1 X46.229 Y36.419 E11.17599
G1 X47.720 Y36.091 E11.27236
G1 X49.237 Y35.926 E11.36873
G1 X50.763 Y35.926 E11.46510 F1800.000
G1 X52.242 Y36.087 E11.55907
G1 X53.769 Y36.418 E11.65770
G1 X55.217 Y36.906 E11.75419
G1 X56.602 Y37.547 E11.85056
G1 X57.910 Y38.334 E11.94693
G1 X59.125 Y39.258 E12.04330
G1 X60.233 Y40.307 E12.13967
G1 X61.221 Y41.470 E12.23604
G1 X62.077 Y42.733 E12.33241
G1 X62.774 Y44.048 E12.42638
G1 X63.356 Y45.498 E12.52501
G1 X63.765 Y46.970 E12.62150
G1 X64.012 Y48.476 E12.71787
G1 X64.095 Y50.000 E12.81424
G1 X64.012 Y51.524 E12.91061
G1 X63.765 Y53.030 E13.00698
G1 X63.367 Y54.464 E13.10095
G1 X62.793 Y55.916 E13.19958
G1 X62.077 Y57.267 E13.29607
G1 X61.221 Y58.530 E13.39244
G1 X60.233 Y59.693 E13.48881
G1 X59.831 Y60.073 E13.52375
G1 X59.163 Y59.477 F7800.000
G1 X58.546 Y60.061 E13.57739 F1800.000
G1 X57.408 Y60.926 E13.66764
G1 X56.183 Y61.663 E13.75790
G1 X54.886 Y62.263 E13.84816
G1 X53.532 Y62.719 E13.93841
G1 X52.136 Y63.027 E14.02867
G1 X50.715 Y63.181 E14.11893
G1 X49.285 Y63.181 E14.20918
G1 X47.864 Y63.027 E14.29944
G1 X46.468 Y62.719 E14.38969
G1 X45.114 Y62.263 E14.47995
G1 X43.817 Y61.663 E14.57021
G1 X42.592 Y60.926 E14.66046
G1 X41.454 Y60.061 E14.75072
G1 X40.416 Y59.078 E14.84098
G1 X39.491 Y57.989 E14.93123
G1 X38.689 Y56.806 E15.02149
G1 X38.019 Y55.543 E15.11175
G1 X37.490 Y54.215 E15.20200
G1 X37.100 Y52.809 E15.29416
G1 X36.877 Y51.427 E15.38256
G1 X36.801 Y50.037 E15.47046
G1 X36.877 Y48.573 E15.56298
G1 X37.108 Y47.162 E15.65328
G1 X37.490 Y45.785 E15.74354
G1 X38.019 Y44.457 E15.83380
G1 X38.689 Y43.194 E15.92405
G1 X39.491 Y42.011 E16.01431
G1 X40.416 Y40.922 E16.10456
G1 X41.454 Y39.939 E16.19482
G1 X42.563 Y39.096 E16.28275
G1 X43.816 Y38.337 E16.37528
G1 X45.114 Y37.737 E16.46558
G1 X46.468 Y37.280 E16.55583
G1 X47.864 Y36.973 E16.64609
G1 X49.285 Y36.819 E16.73635
G1 X50.715 Y36.819 E16.82660 F1800.000
G1 X52.099 Y36.969 E16.91454
G1 X53.531 Y37.280 E17.00706
G1 X54.886 Y37.737 E17.09736
G1 X56.183 Y38.337 E17.18761
G1 X57.408 Y39.074 E17.27787
G1 X58.546 Y39.939 E17.36813
G1 X59.584 Y40.922 E17.45838
G1 X60.509 Y42.011 E17.54864
G1 X61.311 Y43.194 E17.63890
G1 X61.963 Y44.425 E17.72683
G1 X62.509 Y45.784 E17.81935
G1 X62.892 Y47.162 E17.90965
G1 X63.123 Y48.573 E17.99991
G1 X63.201 Y50.000 E18.09017
G1 X63.123 Y51.427 E18.18042
G1 X62.892 Y52.838 E18.27068
G1 X62.519 Y54.180 E18.35861
G1 X61.981 Y55.542 E18.45113
G1 X61.311 Y56.806 E18.54143
G1 X60.509 Y57.989 E18.63169
G1 X59.584 Y59.078 E18.72195
G1 X59.217 Y59.425 E18.75383
G1 X59.279 Y59.963 F7800.000
G1 X61.608 Y62.058 F7800.000
G1 X60.851 Y62.775 E18.81964 F1800.000
G1 X59.406 Y63.873 E18.93424
G1 X57.851 Y64.809 E19.04884
G1 X56.204 Y65.571 E19.16345
G1 X54.484 Y66.150 E19.27805
G1 X52.712 Y66.541 E19.39265
G1 X50.907 Y66.737 E19.50725
G1 X49.093 Y66.737 E19.62185
G1 X47.288 Y66.541 E19.73645
G1 X45.516 Y66.150 E19.85105
G1 X43.796 Y65.571 E19.96566
G1 X42.149 Y64.809 E20.08026
G1 X40.637 Y63.899 E20.19164
G1 X39.147 Y62.773 E20.30964
G1 X37.831 Y61.527 E20.42404
G1 X36.656 Y60.144 E20.53864
G1 X35.638 Y58.641 E20.65324
G1 X34.788 Y57.038 E20.76785
G1 X34.116 Y55.352 E20.88245
G1 X33.631 Y53.603 E20.99705
G1 X33.337 Y51.812 E21.11165
G1 X33.239 Y50.000 E21.22625
G1 X33.337 Y48.188 E21.34085
G1 X33.631 Y46.397 E21.45546
G1 X34.116 Y44.648 E21.57006
G1 X34.788 Y42.962 E21.68466
G1 X35.638 Y41.359 E21.79926
G1 X36.656 Y39.856 E21.91386
G1 X37.831 Y38.473 E22.02846
G1 X39.149 Y37.225 E22.14306
G1 X40.594 Y36.127 E22.25767
G1 X42.149 Y35.191 E22.37227
G1 X43.796 Y34.429 E22.48687
G1 X45.516 Y33.850 E22.60147
G1 X47.288 Y33.459 E22.71607
G1 X49.093 Y33.263 E22.83067
G1 X50.907 Y33.263 E22.94527
G1 X52.661 Y33.454 E23.05666
G1 X54.487 Y33.851 E23.17466 F1800.000
G1 X56.204 Y34.429 E23.28906
G1 X57.851 Y35.191 E23.40366
G1 X59.406 Y36.127 E23.51826
G1 X60.851 Y37.225 E23.63286
G1 X62.169 Y38.473 E23.74747
G1 X63.344 Y39.856 E23.86207
G1 X64.362 Y41.359 E23.97667
G1 X65.212 Y42.962 E24.09127
G1 X65.884 Y44.648 E24.20587
G1 X66.369 Y46.397 E24.32047
G1 X66.663 Y48.188 E24.43507
G1 X66.761 Y50.000 E24.54968
G1 X66.663 Y51.812 E24.66428
G1 X66.369 Y53.603 E24.77888
G1 X65.884 Y55.352 E24.89348
G1 X65.212 Y57.038 E25.00808
G1 X64.362 Y58.641 E25.12268
G1 X63.344 Y60.144 E25.23729
G1 X62.169 Y61.527 E25.35189
G1 X61.662 Y62.007 E25.39594
G1 X62.222 Y62.706 F7800.000
G1 X61.430 Y63.456 E25.46481 F1800.000
G1 X59.908 Y64.613 E25.58552
G1 X58.270 Y65.599 E25.70624
G1 X56.535 Y66.401 E25.82695
G1 X54.723 Y67.012 E25.94766
G1 X52.856 Y67.423 E26.06838
G1 X50.956 Y67.629 E26.18909
G1 X49.044 Y67.629 E26.30981
G1 X47.144 Y67.423 E26.43052
G1 X45.277 Y67.012 E26.55124
G1 X43.465 Y66.401 E26.67195
G1 X41.730 Y65.599 E26.79266
G1 X40.137 Y64.640 E26.91008
G1 X38.569 Y63.455 E27.03419
G1 X37.182 Y62.142 E27.15479
G1 X35.945 Y60.685 E27.27550
G1 X34.872 Y59.102 E27.39621
G1 X33.976 Y57.413 E27.51693
G1 X33.269 Y55.637 E27.63764
G1 X32.757 Y53.795 E27.75836
G1 X32.448 Y51.909 E27.87907
G1 X32.345 Y50.000 E27.99978
G1 X32.448 Y48.091 E28.12050
G1 X32.757 Y46.205 E28.24121
G1 X33.269 Y44.363 E28.36193
G1 X33.976 Y42.587 E28.48264
G1 X34.872 Y40.898 E28.60335
G1 X35.945 Y39.315 E28.72407
G1 X37.182 Y37.858 E28.84478
G1 X38.570 Y36.544 E28.96550
G1 X40.092 Y35.387 E29.08621
G1 X41.730 Y34.401 E29.20692
G1 X43.465 Y33.599 E29.32764
G1 X45.277 Y32.988 E29.44835
G1 X47.144 Y32.577 E29.56907
G1 X49.044 Y32.371 E29.68978
G1 X50.956 Y32.371 E29.81050
G1 X52.804 Y32.572 E29.92791
G1 X54.725 Y32.989 E30.05203 F1800.000
G1 X56.535 Y33.599 E30.17262
G1 X58.270 Y34.401 E30.29333
G1 X59.908 Y35.387 E30.41405
G1 X61.430 Y36.544 E30.53476
G1 X62.818 Y37.858 E30.65547
G1 X64.055 Y39.315 E30.77619
G1 X65.128 Y40.898 E30.89690
G1 X66.024 Y42.587 E31.01762
G1 X66.731 Y44.363 E31.13833
G1 X67.243 Y46.205 E31.25904
G1 X67.552 Y48.091 E31.37976
G1 X67.655 Y50.000 E31.50047
G1 X67.552 Y51.909 E31.62119
G1 X67.243 Y53.795 E31.74190
G1 X66.731 Y55.637 E31.86262
G1 X66.024 Y57.413 E31.98333
G1 X65.128 Y59.102 E32.10404
G1 X64.055 Y60.685 E32.22476
G1 X62.818 Y62.142 E32.34547
G1 X62.276 Y62.655 E32.39259
G1 X62.835 Y63.354 F7800.000
G1 X62.009 Y64.138 E32.46451 F1800.000
G1 X60.410 Y65.353 E32.59133
G1 X58.689 Y66.389 E32.71816
G1 X56.866 Y67.232 E32.84499
G1 X54.962 Y67.873 E32.97181
G1 X53.001 Y68.305 E33.09864
G1 X51.004 Y68.522 E33.22547
G1 X48.996 Y68.522 E33.35229
G1 X46.999 Y68.305 E33.47912
G1 X45.038 Y67.873 E33.60595
G1 X43.134 Y67.232 E33.73277
G1 X41.311 Y66.389 E33.85960
G1 X39.636 Y65.381 E33.98305
G1 X37.991 Y64.137 E34.11328
G1 X36.533 Y62.756 E34.24006
G1 X35.233 Y61.226 E34.36689
G1 X34.106 Y59.563 E34.49371
G1 X33.165 Y57.789 E34.62054
G1 X32.422 Y55.923 E34.74737
G1 X31.884 Y53.988 E34.87419
G1 X31.559 Y52.006 E35.00102
G1 X31.451 Y50.000 E35.12785
G1 X31.559 Y47.994 E35.25467
G1 X31.884 Y46.012 E35.38150
G1 X32.422 Y44.077 E35.50833
G1 X33.165 Y42.211 E35.63515
G1 X34.106 Y40.437 E35.76198
G1 X35.233 Y38.774 E35.88881
G1 X36.533 Y37.244 E36.01563
G1 X37.991 Y35.862 E36.14246
G1 X39.590 Y34.647 E36.26929
G1 X41.311 Y33.611 E36.39611
G1 X43.134 Y32.768 E36.52294
G1 X45.038 Y32.127 E36.64977
G1 X46.999 Y31.695 E36.77659
G1 X48.996 Y31.478 E36.90342
G1 X51.004 Y31.478 E37.03025
G1 X52.948 Y31.689 E37.15370
G1 X54.963 Y32.127 E37.28392 F1800.000
G1 X56.866 Y32.768 E37.41071
G1 X58.689 Y33.611 E37.53753
G1 X60.410 Y34.647 E37.66436
G1 X62.009 Y35.862 E37.79119
G1 X63.467 Y37.244 E37.91801
G1 X64.767 Y38.774 E38.04484
G1 X65.894 Y40.437 E38.17167
G1 X66.835 Y42.211 E38.29849
G1 X67.578 Y44.077 E38.42532
G1 X68.116 Y46.012 E38.55215
G1 X68.441 Y47.994 E38.67897
G1 X68.549 Y50.000 E38.80580
G1 X68.441 Y52.006 E38.93263
G1 X68.116 Y53.988 E39.05945
G1 X67.578 Y55.923 E39.18628
G1 X66.835 Y57.789 E39.31311
G1 X65.894 Y59.563 E39.43993
G1 X64.767 Y61.226 E39.56676
G1 X63.467 Y62.756 E39.69359
G1 X62.890 Y63.303 E39.74376
G1 X62.356 Y63.212 F7800.000
G1 X60.999 Y61.416 F7800.000
G1 X60.277 Y62.099 E39.87685 F1800.000
G1 X58.909 Y63.139 E40.10698
G1 X57.436 Y64.025 E40.33711
G1 X55.853 Y64.755 E40.57040
G1 X54.247 Y65.296 E40.79734
G1 X52.568 Y65.666 E41.02747
G1 X50.859 Y65.851 E41.25759
G1 X49.117 Y65.849 E41.49088
G1 X47.432 Y65.666 E41.71783
G1 X45.776 Y65.301 E41.94477
G1 X44.124 Y64.747 E42.17806
G1 X42.544 Y64.013 E42.41136
G1 X41.112 Y63.151 E42.63512
G1 X39.742 Y62.113 E42.86521
G1 X38.475 Y60.917 E43.09850
G1 X37.349 Y59.587 E43.33179
G1 X36.398 Y58.184 E43.55873
G1 X35.603 Y56.687 E43.78568
G1 X34.956 Y55.069 E44.01897
G1 X34.485 Y53.356 E44.25675
G1 X34.218 Y51.716 E44.47920
G1 X34.127 Y50.017 E44.70701
G1 X34.218 Y48.284 E44.93943 F1800.000
G1 X34.496 Y46.587 E45.16955
G1 X34.956 Y44.931 E45.39968
G1 X35.603 Y43.313 E45.63297
G1 X36.398 Y41.816 E45.85991
G1 X37.349 Y40.413 E46.08686
G1 X38.459 Y39.101 E46.31697
G1 X39.723 Y37.901 E46.55026
G1 X41.092 Y36.862 E46.78037
G1 X42.564 Y35.974 E47.01049
G1 X44.124 Y35.253 E47.24061
G1 X45.753 Y34.704 E47.47074
G1 X47.455 Y34.332 E47.70403
G1 X49.164 Y34.148 E47.93414
G1 X50.859 Y34.149 E48.16108
G1 X52.505 Y34.327 E48.38269
G1 X54.251 Y34.705 E48.62188
G1 X55.876 Y35.253 E48.85141
G1 X57.436 Y35.975 E49.08154
G1 X58.928 Y36.875 E49.31483
G1 X60.277 Y37.901 E49.54177
G1 X61.508 Y39.066 E49.76872
G1 X62.623 Y40.375 E49.99883
G1 X63.602 Y41.816 E50.23212
G1 X64.406 Y43.335 E50.46223
G1 X65.044 Y44.931 E50.69234
G1 X65.504 Y46.587 E50.92247
G1 X65.782 Y48.284 E51.15260
