; generated by Slic3r 1.2.9 on 2018-04-13 at 13:28:30







; external perimeters extrusion width = 0.50mm



; perimeters extrusion width = 0.72mm



; infill extrusion width = 0.72mm



; solid infill extrusion width = 0.72mm



; top infill extrusion width = 0.72mm







G28 ; home all axes



G1 Z2 F5000 ; lift nozzle







G21 ; set units to millimeters



G90 ; use absolute coordinates



G1 Z0.500 F7800.000



G1 E-2.00000 F2400.00000



G1 X21.647 Y22.102 F7800.000



G1 E2.00000 F2400.00000



G1 X23.121 Y20.705 E2.12820 F1800.000



G1 X23.690 Y20.222 E2.17533



G1 X25.306 Y18.994 E2.30352



G1 X25.924 Y18.575 E2.35065



G1 X27.664 Y17.528 E2.47885



G1 X28.323 Y17.179 E2.52598



G1 X30.166 Y16.326 E2.65418



G1 X30.859 Y16.050 E2.70130



G1 X32.783 Y15.402 E2.82950



G1 X33.502 Y15.202 E2.87663



G1 X35.485 Y14.765 E3.00483



G1 X36.221 Y14.645 E3.05195



G1 X38.240 Y14.425 E3.18015



G1 X38.985 Y14.385 E3.22728



G1 X41.015 Y14.385 E3.35548



G1 X41.760 Y14.425 E3.40261



G1 X43.779 Y14.645 E3.53081 F1800.000



G1 X44.515 Y14.765 E3.57793



G1 X46.498 Y15.202 E3.70613



G1 X47.217 Y15.402 E3.75326



G1 X49.141 Y16.050 E3.88146



G1 X49.834 Y16.326 E3.92858



G1 X51.572 Y17.130 E4.04946



G1 X52.336 Y17.528 E4.10390



G1 X54.076 Y18.575 E4.23210



G1 X54.694 Y18.994 E4.27923



G1 X56.310 Y20.222 E4.40743



G1 X56.879 Y20.705 E4.45455



G1 X58.353 Y22.102 E4.58275



G1 X58.866 Y22.643 E4.62988



G1 X60.105 Y24.102 E4.75075



G1 X60.632 Y24.785 E4.80520



G1 X61.771 Y26.465 E4.93339



G1 X62.156 Y27.105 E4.98052



G1 X63.107 Y28.899 E5.10872



G1 X63.420 Y29.576 E5.15585



G1 X64.101 Y31.286 E5.27207



G1 X64.410 Y32.169 E5.33116



G1 X64.953 Y34.125 E5.45936



G1 X65.114 Y34.854 E5.50648



G1 X65.442 Y36.858 E5.63469



G1 X65.523 Y37.600 E5.68181



G1 X65.626 Y39.511 E5.80269



G1 X65.633 Y40.373 E5.85713



G1 X65.523 Y42.400 E5.98533



G1 X65.442 Y43.142 E6.03245



G1 X65.114 Y45.146 E6.16065



G1 X64.953 Y45.875 E6.20778



G1 X64.410 Y47.831 E6.33598



G1 X64.172 Y48.538 E6.38310



G1 X63.420 Y50.424 E6.51130



G1 X63.107 Y51.102 E6.55843



G1 X62.156 Y52.895 E6.68663



G1 X61.771 Y53.535 E6.73376



G1 X60.632 Y55.215 E6.86195



G1 X60.180 Y55.809 E6.90908



G1 X58.866 Y57.357 E7.03728



G1 X58.353 Y57.898 E7.08441



G1 X56.879 Y59.295 E7.21261



G1 X56.310 Y59.778 E7.25973



G1 X54.694 Y61.006 E7.38793



G1 X54.076 Y61.425 E7.43506



G1 X52.336 Y62.472 E7.56326



G1 X51.677 Y62.821 E7.61038



G1 X49.834 Y63.674 E7.73858



G1 X49.141 Y63.950 E7.78571



G1 X47.217 Y64.598 E7.91391



G1 X46.498 Y64.798 E7.96104



G1 X44.515 Y65.235 E8.08924



G1 X43.779 Y65.355 E8.13636



G1 X41.760 Y65.575 E8.26456



G1 X41.015 Y65.615 E8.31169



G1 X38.985 Y65.615 E8.43989



G1 X38.240 Y65.575 E8.48701



G1 X36.221 Y65.355 E8.61521



G1 X35.485 Y65.235 E8.66234



G1 X33.502 Y64.798 E8.79054



G1 X32.783 Y64.598 E8.83767



G1 X30.969 Y63.987 E8.95854



G1 X30.166 Y63.674 E9.01298



G1 X28.323 Y62.821 E9.14118



G1 X27.664 Y62.472 E9.18831



G1 X25.924 Y61.425 E9.31651



G1 X25.306 Y61.006 E9.36363



G1 X23.690 Y59.778 E9.49183



G1 X23.121 Y59.295 E9.53896



G1 X21.732 Y57.978 E9.65983



G1 X21.134 Y57.357 E9.71428



G1 X19.820 Y55.809 E9.84247



G1 X19.368 Y55.215 E9.88960



G1 X18.229 Y53.535 E10.01780



G1 X17.844 Y52.895 E10.06493



G1 X16.893 Y51.102 E10.19313



G1 X16.580 Y50.424 E10.24025



G1 X15.828 Y48.538 E10.36846



G1 X15.590 Y47.831 E10.41558



G1 X15.047 Y45.875 E10.54378



G1 X14.886 Y45.146 E10.59091



G1 X14.558 Y43.142 E10.71910



G1 X14.477 Y42.400 E10.76623



G1 X14.367 Y40.373 E10.89444



G1 X14.367 Y39.627 E10.94156



G1 X14.477 Y37.600 E11.06976



G1 X14.558 Y36.858 E11.11688



G1 X14.886 Y34.854 E11.24508



G1 X15.047 Y34.125 E11.29221



G1 X15.590 Y32.169 E11.42041



G1 X15.828 Y31.462 E11.46753



G1 X16.580 Y29.576 E11.59573



G1 X16.893 Y28.898 E11.64286



G1 X17.844 Y27.105 E11.77106



G1 X18.229 Y26.465 E11.81819



G1 X19.368 Y24.785 E11.94638



G1 X19.820 Y24.191 E11.99351



G1 X21.134 Y22.643 E12.12171



G1 X21.596 Y22.156 E12.16410



G1 E10.16410 F2400.00000



G1 X50.037 Y50.829 F7800.000



G1 E2.00000 F2400.00000



G1 X49.579 Y51.267 E2.04004 F1800.000



G1 X48.299 Y52.240 E2.14158



G1 X46.927 Y53.066 E2.24269



G1 X45.474 Y53.738 E2.34381



G1 X43.956 Y54.250 E2.44492



G1 X42.393 Y54.594 E2.54604



G1 X40.801 Y54.767 E2.64715



G1 X39.199 Y54.767 E2.74827



G1 X37.607 Y54.594 E2.84938



G1 X36.044 Y54.250 E2.95049



G1 X34.569 Y53.753 E3.04876



G1 X33.076 Y53.068 E3.15248



G1 X31.701 Y52.240 E3.25382



G1 X30.426 Y51.271 E3.35494



G1 X29.263 Y50.170 E3.45605



G1 X28.227 Y48.950 E3.55717



G1 X27.328 Y47.624 E3.65828



G1 X26.578 Y46.210 E3.75940



G1 X25.985 Y44.722 E3.86051



G1 X25.557 Y43.179 E3.96162



G1 X25.298 Y41.599 E4.06274



G1 X25.213 Y40.027 E4.16216



G1 X25.298 Y38.403 E4.26482



G1 X25.557 Y36.821 E4.36607



G1 X25.985 Y35.278 E4.46719



G1 X26.578 Y33.790 E4.56830



G1 X27.328 Y32.376 E4.66942



G1 X28.227 Y31.050 E4.77053



G1 X29.263 Y29.830 E4.87165



G1 X30.426 Y28.729 E4.97276



G1 X31.701 Y27.760 E5.07387



G1 X33.073 Y26.934 E5.17499



G1 X34.526 Y26.262 E5.27610



G1 X36.044 Y25.750 E5.37722



G1 X37.607 Y25.406 E5.47833



G1 X39.199 Y25.233 E5.57945



G1 X40.801 Y25.233 E5.68056 F1800.000



G1 X42.393 Y25.406 E5.78168



G1 X43.956 Y25.750 E5.88279



G1 X45.474 Y26.262 E5.98391



G1 X46.927 Y26.934 E6.08502



G1 X48.299 Y27.760 E6.18613



G1 X49.574 Y28.729 E6.28725



G1 X50.737 Y29.830 E6.38836



G1 X51.773 Y31.050 E6.48948



G1 X52.672 Y32.376 E6.59059



G1 X53.383 Y33.716 E6.68640



G1 X54.013 Y35.271 E6.79237



G1 X54.443 Y36.821 E6.89391



G1 X54.702 Y38.401 E6.99502



G1 X54.789 Y40.000 E7.09614



G1 X54.702 Y41.599 E7.19725



G1 X54.443 Y43.179 E7.29837



G1 X54.015 Y44.722 E7.39948



G1 X53.422 Y46.210 E7.50060



G1 X52.672 Y47.624 E7.60171



G1 X51.773 Y48.950 E7.70283



G1 X50.791 Y50.106 E7.79863



G1 X50.091 Y50.777 E7.85983



G1 X49.419 Y50.184 F7800.000



G1 X48.999 Y50.588 E7.89665 F1800.000



G1 X47.798 Y51.501 E7.99191



G1 X46.508 Y52.276 E8.08691



G1 X45.143 Y52.908 E8.18191



G1 X43.717 Y53.388 E8.27691



G1 X42.248 Y53.712 E8.37191



G1 X40.752 Y53.874 E8.46692



G1 X39.248 Y53.874 E8.56192



G1 X37.752 Y53.712 E8.65692



G1 X36.283 Y53.388 E8.75192



G1 X34.898 Y52.922 E8.84416



G1 X33.494 Y52.277 E8.94177



G1 X32.202 Y51.501 E9.03691



G1 X31.005 Y50.590 E9.13192



G1 X29.912 Y49.555 E9.22692



G1 X28.938 Y48.409 E9.32192



G1 X28.094 Y47.163 E9.41692



G1 X27.389 Y45.834 E9.51192



G1 X26.833 Y44.437 E9.60693



G1 X26.430 Y42.987 E9.70193



G1 X26.187 Y41.502 E9.79693



G1 X26.107 Y40.026 E9.89029



G1 X26.186 Y38.499 E9.98684



G1 X26.430 Y37.013 E10.08193



G1 X26.833 Y35.563 E10.17693



G1 X27.389 Y34.166 E10.27193



G1 X28.094 Y32.837 E10.36693



G1 X28.938 Y31.591 E10.46193



G1 X29.912 Y30.445 E10.55694



G1 X31.005 Y29.410 E10.65194



G1 X32.202 Y28.499 E10.74694



G1 X33.492 Y27.724 E10.84194



G1 X34.857 Y27.092 E10.93694



G1 X36.283 Y26.612 E11.03195



G1 X37.752 Y26.288 E11.12695



G1 X39.248 Y26.126 E11.22195



G1 X40.752 Y26.126 E11.31695 F1800.000



G1 X42.248 Y26.288 E11.41195



G1 X43.717 Y26.612 E11.50695



G1 X45.143 Y27.092 E11.60196



G1 X46.508 Y27.724 E11.69696



G1 X47.798 Y28.499 E11.79196



G1 X48.995 Y29.410 E11.88696



G1 X50.088 Y30.445 E11.98196



G1 X51.062 Y31.591 E12.07697



G1 X51.906 Y32.837 E12.17197



G1 X52.572 Y34.094 E12.26183



G1 X53.166 Y35.559 E12.36169



G1 X53.570 Y37.013 E12.45695



G1 X53.813 Y38.498 E12.55195



G1 X53.895 Y40.000 E12.64695



G1 X53.813 Y41.502 E12.74195



G1 X53.570 Y42.987 E12.83696



G1 X53.167 Y44.437 E12.93196



G1 X52.611 Y45.834 E13.02696



G1 X51.906 Y47.163 E13.12196



G1 X51.062 Y48.409 E13.21696



G1 X50.140 Y49.493 E13.30682



G1 X49.474 Y50.132 E13.36513



G1 X48.802 Y49.540 F7800.000



G1 X48.418 Y49.908 E13.39872 F1800.000



G1 X47.296 Y50.761 E13.48771



G1 X46.090 Y51.486 E13.57660



G1 X44.812 Y52.077 E13.66548



G1 X43.478 Y52.527 E13.75437



G1 X42.103 Y52.829 E13.84326



G1 X40.704 Y52.982 E13.93215



G1 X39.296 Y52.982 E14.02104



G1 X37.897 Y52.829 E14.10993



G1 X36.522 Y52.527 E14.19882



G1 X35.228 Y52.091 E14.28504



G1 X33.911 Y51.487 E14.37653



G1 X32.704 Y50.761 E14.46547



G1 X31.584 Y49.909 E14.55436



G1 X30.562 Y48.941 E14.64325



G1 X29.650 Y47.868 E14.73214



G1 X28.860 Y46.703 E14.82103



G1 X28.201 Y45.459 E14.90992



G1 X27.680 Y44.151 E14.99881



G1 X27.303 Y42.795 E15.08770



G1 X27.075 Y41.406 E15.17659



G1 X27.001 Y40.025 E15.26389



G1 X27.075 Y38.595 E15.35433



G1 X27.303 Y37.205 E15.44325



G1 X27.680 Y35.849 E15.53214



G1 X28.201 Y34.541 E15.62103



G1 X28.860 Y33.297 E15.70992



G1 X29.650 Y32.132 E15.79881



G1 X30.562 Y31.059 E15.88770



G1 X31.584 Y30.091 E15.97658



G1 X32.704 Y29.239 E16.06547



G1 X33.910 Y28.514 E16.15436



G1 X35.188 Y27.923 E16.24325



G1 X36.522 Y27.473 E16.33214



G1 X37.897 Y27.171 E16.42103



G1 X39.296 Y27.018 E16.50992



G1 X40.704 Y27.018 E16.59881 F1800.000



G1 X42.103 Y27.171 E16.68770



G1 X43.478 Y27.473 E16.77659



G1 X44.812 Y27.923 E16.86548



G1 X46.090 Y28.514 E16.95437



G1 X47.296 Y29.239 E17.04326



G1 X48.416 Y30.091 E17.13215



G1 X49.438 Y31.059 E17.22104



G1 X50.350 Y32.132 E17.30992



G1 X51.140 Y33.297 E17.39881



G1 X51.762 Y34.472 E17.48273



G1 X52.320 Y35.847 E17.57647



G1 X52.697 Y37.205 E17.66546



G1 X52.925 Y38.594 E17.75434



G1 X53.001 Y40.000 E17.84323



G1 X52.925 Y41.406 E17.93212



G1 X52.697 Y42.795 E18.02101



G1 X52.320 Y44.151 E18.10990



G1 X51.799 Y45.459 E18.19879



G1 X51.140 Y46.703 E18.28768



G1 X50.350 Y47.868 E18.37657



G1 X49.489 Y48.881 E18.46048



G1 X48.856 Y49.488 E18.51590



G1 X48.921 Y50.025 F7800.000



G1 X51.180 Y52.050 F7800.000



G1 X50.657 Y52.546 E18.56141 F1800.000



G1 X49.238 Y53.625 E18.67396



G1 X47.711 Y54.544 E18.78651



G1 X46.093 Y55.292 E18.89906



G1 X44.404 Y55.861 E19.01161



G1 X42.770 Y56.221 E19.11726



G1 X40.884 Y56.437 E19.23710



G1 X39.109 Y56.437 E19.34922



G1 X37.337 Y56.244 E19.46177



G1 X35.596 Y55.861 E19.57432



G1 X33.907 Y55.292 E19.68687



G1 X32.289 Y54.544 E19.79942



G1 X30.856 Y53.681 E19.90507



G1 X29.338 Y52.542 E20.02491



G1 X28.049 Y51.320 E20.13703



G1 X26.895 Y49.962 E20.24958



G1 X25.895 Y48.487 E20.36213



G1 X25.060 Y46.912 E20.47468



G1 X24.400 Y45.256 E20.58723



G1 X23.953 Y43.644 E20.69288



G1 X23.635 Y41.773 E20.81271



G1 X23.539 Y40.000 E20.92484



G1 X23.635 Y38.220 E21.03739



G1 X23.924 Y36.461 E21.14994



G1 X24.400 Y34.744 E21.26249



G1 X25.060 Y33.088 E21.37504



G1 X25.895 Y31.513 E21.48759



G1 X26.895 Y30.038 E21.60014



G1 X28.049 Y28.680 E21.71269



G1 X29.343 Y27.454 E21.82524



G1 X30.762 Y26.375 E21.93779



G1 X32.289 Y25.456 E22.05034



G1 X33.907 Y24.708 E22.16289



G1 X35.596 Y24.139 E22.27544



G1 X37.337 Y23.756 E22.38799



G1 X39.109 Y23.563 E22.50054



G1 X40.891 Y23.563 E22.61309



G1 X42.607 Y23.749 E22.72205



G1 X44.407 Y24.140 E22.83839 F1800.000



G1 X46.093 Y24.708 E22.95072



G1 X47.711 Y25.456 E23.06327



G1 X49.238 Y26.375 E23.17582



G1 X50.657 Y27.454 E23.28837



G1 X51.951 Y28.680 E23.40092



G1 X53.105 Y30.038 E23.51347



G1 X54.105 Y31.513 E23.62602



G1 X54.940 Y33.088 E23.73857



G1 X55.600 Y34.744 E23.85112



G1 X56.047 Y36.356 E23.95676



G1 X56.365 Y38.227 E24.07660



G1 X56.461 Y40.000 E24.18873



G1 X56.365 Y41.780 E24.30127



G1 X56.076 Y43.539 E24.41382



G1 X55.600 Y45.256 E24.52637



G1 X54.940 Y46.912 E24.63892



G1 X54.105 Y48.487 E24.75147



G1 X53.105 Y49.962 E24.86402



G1 X51.951 Y51.320 E24.97657



G1 X51.235 Y51.999 E25.03887



G1 X51.794 Y52.699 F7800.000



G1 X51.236 Y53.228 E25.08744 F1800.000



G1 X49.740 Y54.365 E25.20611



G1 X48.129 Y55.334 E25.32477



G1 X46.424 Y56.123 E25.44343



G1 X44.643 Y56.723 E25.56209



G1 X42.917 Y57.103 E25.67369



G1 X40.936 Y57.330 E25.79964



G1 X39.060 Y57.330 E25.91804



G1 X37.192 Y57.127 E26.03670



G1 X35.357 Y56.723 E26.15537



G1 X33.576 Y56.123 E26.27403



G1 X31.871 Y55.334 E26.39269



G1 X30.356 Y54.422 E26.50429



G1 X28.761 Y53.225 E26.63023



G1 X27.400 Y51.935 E26.74864



G1 X26.184 Y50.503 E26.86730



G1 X25.129 Y48.948 E26.98596



G1 X24.249 Y47.287 E27.10463



G1 X23.553 Y45.542 E27.22329



G1 X23.080 Y43.839 E27.33488



G1 X22.746 Y41.872 E27.46083



G1 X22.645 Y40.000 E27.57923



G1 X22.746 Y38.124 E27.69790



G1 X23.050 Y36.269 E27.81656



G1 X23.553 Y34.458 E27.93522



G1 X24.249 Y32.713 E28.05388



G1 X25.129 Y31.052 E28.17255



G1 X26.184 Y29.497 E28.29121



G1 X27.400 Y28.065 E28.40987



G1 X28.764 Y26.772 E28.52853



G1 X30.260 Y25.635 E28.64720



G1 X31.871 Y24.666 E28.76586



G1 X33.576 Y23.877 E28.88452



G1 X35.357 Y23.277 E29.00318



G1 X37.192 Y22.873 E29.12185



G1 X39.060 Y22.670 E29.24051



G1 X40.940 Y22.670 E29.35917



G1 X42.750 Y22.867 E29.47416



G1 X44.645 Y23.278 E29.59661 F1800.000



G1 X46.424 Y23.877 E29.71514



G1 X48.129 Y24.666 E29.83380



G1 X49.740 Y25.635 E29.95246



G1 X51.236 Y26.772 E30.07112



G1 X52.600 Y28.065 E30.18979



G1 X53.816 Y29.497 E30.30845



G1 X54.871 Y31.052 E30.42711



G1 X55.751 Y32.713 E30.54577



G1 X56.447 Y34.458 E30.66444



G1 X56.920 Y36.161 E30.77603



G1 X57.254 Y38.128 E30.90198



G1 X57.355 Y40.000 E31.02038



G1 X57.254 Y41.876 E31.13905



G1 X56.950 Y43.731 E31.25771



G1 X56.447 Y45.542 E31.37637



G1 X55.751 Y47.287 E31.49503



G1 X54.871 Y48.948 E31.61370



G1 X53.816 Y50.503 E31.73236



G1 X52.600 Y51.935 E31.85102



G1 X51.848 Y52.647 E31.91637



G1 X52.408 Y53.347 F7800.000



G1 X51.814 Y53.909 E31.96800 F1800.000



G1 X50.241 Y55.105 E32.09278



G1 X48.548 Y56.123 E32.21755



G1 X46.755 Y56.953 E32.34233



G1 X44.882 Y57.584 E32.46710



G1 X43.064 Y57.984 E32.58465



G1 X40.987 Y58.223 E32.71671



G1 X39.012 Y58.223 E32.84139



G1 X37.048 Y58.009 E32.96616



G1 X35.118 Y57.584 E33.09094



G1 X33.245 Y56.953 E33.21571



G1 X31.452 Y56.123 E33.34049



G1 X29.857 Y55.164 E33.45803



G1 X28.185 Y53.908 E33.59009



G1 X26.751 Y52.550 E33.71477



G1 X25.472 Y51.044 E33.83955



G1 X24.363 Y49.408 E33.96432



G1 X23.437 Y47.663 E34.08910



G1 X22.706 Y45.827 E34.21387



G1 X22.208 Y44.033 E34.33142



G1 X21.858 Y41.972 E34.46348



G1 X21.751 Y40.000 E34.58816



G1 X21.858 Y38.027 E34.71293



G1 X22.177 Y36.077 E34.83771



G1 X22.706 Y34.173 E34.96248



G1 X23.437 Y32.337 E35.08726



G1 X24.363 Y30.592 E35.21203



G1 X25.472 Y28.956 E35.33681



G1 X26.751 Y27.450 E35.46158



G1 X28.186 Y26.091 E35.58636



G1 X29.759 Y24.895 E35.71113



G1 X31.452 Y23.877 E35.83591



G1 X33.245 Y23.047 E35.96068



G1 X35.118 Y22.416 E36.08546



G1 X37.048 Y21.991 E36.21023



G1 X39.012 Y21.777 E36.33501



G1 X40.988 Y21.777 E36.45978



G1 X42.893 Y21.985 E36.58080



G1 X44.883 Y22.416 E36.70936 F1800.000



G1 X46.755 Y23.047 E36.83409



G1 X48.548 Y23.877 E36.95886



G1 X50.241 Y24.895 E37.08364



G1 X51.814 Y26.091 E37.20841



G1 X53.249 Y27.450 E37.33319



G1 X54.528 Y28.956 E37.45796



G1 X55.637 Y30.592 E37.58274



G1 X56.563 Y32.337 E37.70751



G1 X57.294 Y34.173 E37.83229



G1 X57.792 Y35.967 E37.94983



G1 X58.142 Y38.028 E38.08189



G1 X58.249 Y40.000 E38.20657



G1 X58.142 Y41.973 E38.33135



G1 X57.823 Y43.923 E38.45612



G1 X57.294 Y45.827 E38.58090



G1 X56.563 Y47.663 E38.70567



G1 X55.637 Y49.408 E38.83045



G1 X54.528 Y51.044 E38.95522



G1 X53.249 Y52.550 E39.08000



G1 X52.462 Y53.295 E39.14841



G1 X51.929 Y53.204 F7800.000



G1 X50.599 Y51.448 F7800.000



G1 X50.115 Y51.909 E39.23783 F1800.000



G1 X48.768 Y52.932 E39.46433



G1 X47.319 Y53.805 E39.69083



G1 X45.763 Y54.522 E39.92014



