; generated by Slic3r 1.2.9 on 2018-04-13 at 14:57:34

; external perimeters extrusion width = 0.50mm
; perimeters extrusion width = 0.72mm
; infill extrusion width = 0.72mm
; solid infill extrusion width = 0.72mm
; top infill extrusion width = 0.72mm

G28 ; home all axes
G1 Z2 F5000 ; lift nozzle

G21 ; set units to millimeters
G90 ; use absolute coordinates
G1 Z0.500 F7800.000
G1 X21.430 Y21.895 F7800.000
G1 X22.927 Y20.477 E2.13025 F1800.000
G1 X23.496 Y19.994 E2.17738
G1 X25.138 Y18.745 E2.30763
G1 X25.756 Y18.326 E2.35475
G1 X27.523 Y17.263 E2.48501
G1 X28.183 Y16.913 E2.53213
G1 X30.055 Y16.047 E2.66238
G1 X30.748 Y15.771 E2.70951
G1 X32.703 Y15.112 E2.83976
G1 X33.422 Y14.913 E2.88688
G1 X35.436 Y14.469 E3.01713
G1 X36.173 Y14.349 E3.06426
G1 X38.223 Y14.126 E3.19451
G1 X38.969 Y14.085 E3.24164
G1 X41.031 Y14.085 E3.37189
G1 X41.777 Y14.126 E3.41902
G1 X43.827 Y14.349 E3.54927 F1800.000
G1 X44.564 Y14.469 E3.59639
G1 X46.578 Y14.913 E3.72665
G1 X47.297 Y15.112 E3.77377
G1 X49.142 Y15.734 E3.89669
G1 X49.945 Y16.047 E3.95114
G1 X51.817 Y16.913 E4.08139
G1 X52.477 Y17.263 E4.12851
G1 X54.244 Y18.326 E4.25877
G1 X54.862 Y18.745 E4.30589
G1 X56.412 Y19.923 E4.42882
G1 X57.073 Y20.477 E4.48326
G1 X58.570 Y21.895 E4.61351
G1 X59.084 Y22.437 E4.66064
G1 X60.419 Y24.009 E4.79089
G1 X60.871 Y24.603 E4.83801
G1 X61.963 Y26.215 E4.96094
G1 X62.413 Y26.950 E5.01538
G1 X63.379 Y28.773 E5.14563
G1 X63.692 Y29.450 E5.19276
G1 X64.456 Y31.366 E5.32301
G1 X64.694 Y32.073 E5.37014
G1 X65.246 Y34.061 E5.50039
G1 X65.407 Y34.790 E5.54751
G1 X65.740 Y36.825 E5.67776
G1 X65.821 Y37.567 E5.72489
G1 X65.933 Y39.627 E5.85514
G1 X65.933 Y40.373 E5.90227
G1 X65.821 Y42.433 E6.03252
G1 X65.740 Y43.175 E6.07964
G1 X65.407 Y45.210 E6.20989
G1 X65.246 Y45.939 E6.25702
G1 X64.725 Y47.815 E6.37994
G1 X64.456 Y48.634 E6.43439
G1 X63.692 Y50.550 E6.56464
G1 X63.379 Y51.227 E6.61176
G1 X62.413 Y53.050 E6.74201
G1 X62.028 Y53.689 E6.78914
G1 X60.871 Y55.397 E6.91939
G1 X60.419 Y55.991 E6.96652
G1 X59.084 Y57.563 E7.09677
G1 X58.570 Y58.105 E7.14390
G1 X57.073 Y59.523 E7.27415
G1 X56.504 Y60.006 E7.32127
G1 X54.862 Y61.255 E7.45152
G1 X54.244 Y61.674 E7.49865
G1 X52.477 Y62.737 E7.62890
G1 X51.817 Y63.087 E7.67603
G1 X50.051 Y63.904 E7.79895
G1 X49.252 Y64.229 E7.85340
G1 X47.297 Y64.888 E7.98365
G1 X46.578 Y65.087 E8.03077
G1 X44.564 Y65.531 E8.16102
G1 X43.827 Y65.651 E8.20815
G1 X41.777 Y65.874 E8.33840
G1 X41.031 Y65.915 E8.38553
G1 X38.969 Y65.915 E8.51578
G1 X38.223 Y65.874 E8.56290
G1 X36.173 Y65.651 E8.69316
G1 X35.436 Y65.531 E8.74028
G1 X33.422 Y65.087 E8.87053
G1 X32.703 Y64.888 E8.91765
G1 X30.858 Y64.266 E9.04058
G1 X30.055 Y63.953 E9.09502
G1 X28.183 Y63.087 E9.22527
G1 X27.523 Y62.737 E9.27240
G1 X25.756 Y61.674 E9.40265
G1 X25.138 Y61.255 E9.44978
G1 X23.496 Y60.006 E9.58003
G1 X22.927 Y59.523 E9.62716
G1 X21.514 Y58.185 E9.75008
G1 X20.916 Y57.563 E9.80452
G1 X19.581 Y55.991 E9.93478
G1 X19.129 Y55.397 E9.98190
G1 X17.972 Y53.689 E10.11216
G1 X17.587 Y53.050 E10.15928
G1 X16.621 Y51.227 E10.28953
G1 X16.308 Y50.550 E10.33665
G1 X15.544 Y48.634 E10.46690
G1 X15.306 Y47.927 E10.51403
G1 X14.754 Y45.939 E10.64428
G1 X14.593 Y45.210 E10.69141
G1 X14.279 Y43.289 E10.81433
G1 X14.179 Y42.433 E10.86878
G1 X14.067 Y40.373 E10.99903
G1 X14.067 Y39.627 E11.04615
G1 X14.179 Y37.567 E11.17641
G1 X14.260 Y36.825 E11.22353
G1 X14.575 Y34.904 E11.34645
G1 X14.754 Y34.061 E11.40090
G1 X15.306 Y32.073 E11.53115
G1 X15.544 Y31.366 E11.57827
G1 X16.308 Y29.450 E11.70852
G1 X16.621 Y28.773 E11.75565
G1 X17.587 Y26.950 E11.88590
G1 X17.972 Y26.311 E11.93303
G1 X19.129 Y24.603 E12.06328
G1 X19.581 Y24.009 E12.11041
G1 X20.916 Y22.437 E12.24066
G1 X21.378 Y21.950 E12.28305
G1 X49.181 Y51.821 F7800.000
G1 X48.411 Y52.406 E2.06107 F1800.000
G1 X47.021 Y53.243 E2.16355
G1 X45.548 Y53.924 E2.26604
G1 X44.010 Y54.442 E2.36852
G1 X42.425 Y54.791 E2.47100
G1 X40.811 Y54.967 E2.57348
G1 X39.189 Y54.967 E2.67596
G1 X37.575 Y54.791 E2.77845
G1 X35.990 Y54.442 E2.88093
G1 X34.495 Y53.939 E2.98056
G1 X32.982 Y53.245 E3.08565
G1 X31.589 Y52.406 E3.18836
G1 X30.296 Y51.424 E3.29084
G1 X29.118 Y50.308 E3.39332
G1 X28.068 Y49.071 E3.49580
G1 X27.157 Y47.728 E3.59829
G1 X26.397 Y46.294 E3.70077
G1 X25.796 Y44.786 E3.80325
G1 X25.362 Y43.222 E3.90573
G1 X25.099 Y41.621 E4.00821
G1 X25.013 Y40.027 E4.10900
G1 X25.099 Y38.382 E4.21303
G1 X25.362 Y36.778 E4.31565
G1 X25.796 Y35.214 E4.41813
G1 X26.397 Y33.706 E4.52062
G1 X27.157 Y32.272 E4.62310
G1 X28.068 Y30.929 E4.72558
G1 X29.118 Y29.692 E4.82806
G1 X30.296 Y28.576 E4.93054
G1 X31.589 Y27.594 E5.03303
G1 X32.979 Y26.757 E5.13551
G1 X34.452 Y26.076 E5.23799
G1 X35.990 Y25.558 E5.34047
G1 X37.575 Y25.209 E5.44295
G1 X39.189 Y25.033 E5.54544
G1 X40.811 Y25.033 E5.64792 F1800.000
G1 X42.425 Y25.209 E5.75040
G1 X44.010 Y25.558 E5.85288
G1 X45.548 Y26.076 E5.95536
G1 X47.021 Y26.757 E6.05785
G1 X48.411 Y27.594 E6.16033
G1 X49.704 Y28.576 E6.26281
G1 X50.882 Y29.692 E6.36529
G1 X51.932 Y30.929 E6.46777
G1 X52.843 Y32.272 E6.57026
G1 X53.603 Y33.706 E6.67274
G1 X54.204 Y35.214 E6.77522
G1 X54.638 Y36.778 E6.87770
G1 X54.901 Y38.379 E6.98018
G1 X54.989 Y40.000 E7.08267
G1 X54.901 Y41.621 E7.18515
G1 X54.638 Y43.222 E7.28763
G1 X54.204 Y44.786 E7.39011
G1 X53.634 Y46.216 E7.48729
G1 X52.847 Y47.722 E7.59463
G1 X51.932 Y49.071 E7.69753
G1 X50.882 Y50.308 E7.80001
G1 X49.704 Y51.424 E7.90250
G1 X49.241 Y51.775 E7.93917
G1 X48.641 Y51.110 F7800.000
G1 X47.910 Y51.666 E7.99719 F1800.000
G1 X46.602 Y52.453 E8.09356
G1 X45.217 Y53.094 E8.18993
G1 X43.771 Y53.581 E8.28629
G1 X42.280 Y53.909 E8.38266
G1 X40.763 Y54.074 E8.47903
G1 X39.237 Y54.074 E8.57540
G1 X37.720 Y53.909 E8.67177
G1 X36.229 Y53.581 E8.76814
G1 X34.824 Y53.108 E8.86175
G1 X33.400 Y52.454 E8.96073
G1 X32.090 Y51.666 E9.05724
G1 X30.875 Y50.742 E9.15361
G1 X29.767 Y49.693 E9.24997
G1 X28.779 Y48.530 E9.34634
G1 X27.923 Y47.267 E9.44271
G1 X27.208 Y45.918 E9.53908
G1 X26.643 Y44.500 E9.63545
G1 X26.235 Y43.030 E9.73182
G1 X25.988 Y41.524 E9.82819
G1 X25.907 Y40.026 E9.92292
G1 X25.988 Y38.477 E10.02084
G1 X26.235 Y36.970 E10.11729
G1 X26.643 Y35.500 E10.21366
G1 X27.208 Y34.082 E10.31003
G1 X27.923 Y32.733 E10.40640
G1 X28.779 Y31.470 E10.50277
G1 X29.767 Y30.307 E10.59914
G1 X30.875 Y29.258 E10.69551
G1 X32.090 Y28.334 E10.79188
G1 X33.398 Y27.547 E10.88825
G1 X34.783 Y26.906 E10.98462
G1 X36.229 Y26.419 E11.08099
G1 X37.720 Y26.091 E11.17735
G1 X39.237 Y25.926 E11.27372
G1 X40.763 Y25.926 E11.37009 F1800.000
G1 X42.280 Y26.091 E11.46646
G1 X43.771 Y26.419 E11.56283
G1 X45.217 Y26.906 E11.65920
G1 X46.602 Y27.547 E11.75557
G1 X47.910 Y28.334 E11.85194
G1 X49.125 Y29.258 E11.94831
G1 X50.233 Y30.307 E12.04468
G1 X51.221 Y31.470 E12.14105
G1 X52.077 Y32.733 E12.23742
G1 X52.792 Y34.082 E12.33379
G1 X53.357 Y35.500 E12.43016
G1 X53.765 Y36.970 E12.52653
G1 X54.012 Y38.476 E12.62290
G1 X54.095 Y40.000 E12.71927
G1 X54.012 Y41.524 E12.81564
G1 X53.765 Y43.030 E12.91200
G1 X53.357 Y44.500 E13.00837
G1 X52.822 Y45.843 E13.09961
G1 X52.079 Y47.263 E13.20083
G1 X51.221 Y48.530 E13.29746
G1 X50.233 Y49.693 E13.39383
G1 X49.125 Y50.742 E13.49019
G1 X48.701 Y51.065 E13.52381
G1 X48.101 Y50.399 F7800.000
G1 X47.408 Y50.926 E13.57877 F1800.000
G1 X46.183 Y51.663 E13.66903
G1 X44.886 Y52.263 E13.75929
G1 X43.532 Y52.720 E13.84954
G1 X42.136 Y53.027 E13.93980
G1 X40.715 Y53.181 E14.03006
G1 X39.285 Y53.181 E14.12031
G1 X37.864 Y53.027 E14.21057
G1 X36.468 Y52.720 E14.30083
G1 X35.154 Y52.277 E14.38841
G1 X33.817 Y51.663 E14.48128
G1 X32.592 Y50.926 E14.57158
G1 X31.454 Y50.061 E14.66184
G1 X30.416 Y49.078 E14.75210
G1 X29.491 Y47.989 E14.84235
G1 X28.689 Y46.806 E14.93261
G1 X28.019 Y45.543 E15.02287
G1 X27.490 Y44.215 E15.11312
G1 X27.108 Y42.838 E15.20338
G1 X26.877 Y41.427 E15.29364
G1 X26.801 Y40.025 E15.38231
G1 X26.877 Y38.573 E15.47411
G1 X27.108 Y37.162 E15.56440
G1 X27.490 Y35.785 E15.65466
G1 X28.019 Y34.457 E15.74491
G1 X28.689 Y33.194 E15.83517
G1 X29.491 Y32.011 E15.92543
G1 X30.416 Y30.922 E16.01568
G1 X31.454 Y29.939 E16.10594
G1 X32.592 Y29.074 E16.19620
G1 X33.817 Y28.337 E16.28645
G1 X35.114 Y27.737 E16.37671
G1 X36.468 Y27.280 E16.46697
G1 X37.864 Y26.973 E16.55722
G1 X39.285 Y26.819 E16.64748
G1 X40.715 Y26.819 E16.73774 F1800.000
G1 X42.136 Y26.973 E16.82800
G1 X43.532 Y27.280 E16.91825
G1 X44.886 Y27.737 E17.00851
G1 X46.183 Y28.337 E17.09877
G1 X47.408 Y29.074 E17.18902
G1 X48.546 Y29.939 E17.27928
G1 X49.584 Y30.922 E17.36954
G1 X50.509 Y32.011 E17.45979
G1 X51.311 Y33.194 E17.55005
G1 X51.981 Y34.457 E17.64031
G1 X52.510 Y35.785 E17.73056
G1 X52.892 Y37.162 E17.82082
G1 X53.123 Y38.573 E17.91108
G1 X53.201 Y40.000 E18.00133
G1 X53.123 Y41.427 E18.09159
G1 X52.892 Y42.838 E18.18185
G1 X52.510 Y44.215 E18.27211
G1 X52.010 Y45.470 E18.35739
G1 X51.312 Y46.804 E18.45250
G1 X50.509 Y47.989 E18.54285
G1 X49.584 Y49.078 E18.63311
G1 X48.546 Y50.061 E18.72336
G1 X48.161 Y50.354 E18.75393
G1 X48.164 Y50.895 F7800.000
G1 X50.253 Y53.230 F7800.000
G1 X49.406 Y53.873 E18.82106 F1800.000
G1 X47.851 Y54.809 E18.93566
G1 X46.204 Y55.571 E19.05026
G1 X44.484 Y56.150 E19.16486
G1 X42.712 Y56.540 E19.27946
G1 X40.907 Y56.737 E19.39406
G1 X39.093 Y56.737 E19.50866
G1 X37.288 Y56.540 E19.62326
G1 X35.516 Y56.150 E19.73786
G1 X33.900 Y55.606 E19.84556
G1 X32.143 Y54.805 E19.96744
G1 X30.594 Y53.873 E20.08163
G1 X29.149 Y52.775 E20.19623
G1 X27.831 Y51.527 E20.31083
G1 X26.656 Y50.143 E20.42543
G1 X25.638 Y48.641 E20.54003
G1 X24.788 Y47.038 E20.65463
G1 X24.116 Y45.352 E20.76923
G1 X23.631 Y43.603 E20.88383
G1 X23.337 Y41.812 E20.99843
G1 X23.239 Y40.000 E21.11303
G1 X23.337 Y38.188 E21.22764
G1 X23.631 Y36.397 E21.34224
G1 X24.116 Y34.648 E21.45684
G1 X24.788 Y32.962 E21.57144
G1 X25.638 Y31.359 E21.68604
G1 X26.656 Y29.857 E21.80064
G1 X27.831 Y28.473 E21.91524
G1 X29.149 Y27.225 E22.02984
G1 X30.594 Y26.127 E22.14444
G1 X32.149 Y25.191 E22.25905
G1 X33.796 Y24.429 E22.37365
G1 X35.516 Y23.850 E22.48825
G1 X37.288 Y23.460 E22.60285
G1 X39.093 Y23.263 E22.71745
G1 X40.907 Y23.263 E22.83205
G1 X42.603 Y23.448 E22.93974
G1 X44.490 Y23.852 E23.06163 F1800.000
G1 X46.204 Y24.429 E23.17581
G1 X47.851 Y25.191 E23.29041
G1 X49.406 Y26.127 E23.40501
G1 X50.851 Y27.225 E23.51962
G1 X52.169 Y28.473 E23.63422
G1 X53.344 Y29.857 E23.74882
G1 X54.362 Y31.359 E23.86342
G1 X55.212 Y32.962 E23.97802
G1 X55.884 Y34.648 E24.09262
G1 X56.369 Y36.397 E24.20722
G1 X56.663 Y38.188 E24.32182
G1 X56.761 Y40.000 E24.43642
G1 X56.663 Y41.812 E24.55102
G1 X56.369 Y43.603 E24.66563
G1 X55.884 Y45.352 E24.78023
G1 X55.212 Y47.038 E24.89483
G1 X54.362 Y48.641 E25.00943
G1 X53.344 Y50.143 E25.12403
G1 X52.169 Y51.527 E25.23863
G1 X50.851 Y52.775 E25.35323
G1 X50.312 Y53.184 E25.39597
G1 X50.793 Y53.940 F7800.000
G1 X49.908 Y54.613 E25.46615 F1800.000
G1 X48.270 Y55.599 E25.58687
G1 X46.535 Y56.401 E25.70758
G1 X44.723 Y57.012 E25.82829
G1 X42.856 Y57.423 E25.94901
G1 X40.956 Y57.629 E26.06972
G1 X39.044 Y57.629 E26.19043
G1 X37.144 Y57.423 E26.31115
G1 X35.277 Y57.012 E26.43186
G1 X33.571 Y56.437 E26.54550
G1 X31.727 Y55.597 E26.67350
G1 X30.092 Y54.613 E26.79396
G1 X28.570 Y53.456 E26.91468
G1 X27.182 Y52.142 E27.03539
G1 X25.945 Y50.685 E27.15610
G1 X24.872 Y49.102 E27.27682
G1 X23.977 Y47.413 E27.39753
G1 X23.269 Y45.637 E27.51824
G1 X22.758 Y43.795 E27.63896
G1 X22.448 Y41.909 E27.75967
G1 X22.345 Y40.000 E27.88038
G1 X22.448 Y38.091 E28.00110
G1 X22.758 Y36.205 E28.12181
G1 X23.269 Y34.363 E28.24252
G1 X23.977 Y32.587 E28.36324
G1 X24.872 Y30.898 E28.48395
G1 X25.945 Y29.315 E28.60467
G1 X27.182 Y27.858 E28.72538
G1 X28.570 Y26.544 E28.84609
G1 X30.092 Y25.387 E28.96681
G1 X31.730 Y24.401 E29.08752
G1 X33.465 Y23.599 E29.20823
G1 X35.277 Y22.988 E29.32895
G1 X37.144 Y22.577 E29.44966
G1 X39.044 Y22.371 E29.57037
G1 X40.956 Y22.371 E29.69109
G1 X42.745 Y22.565 E29.80473
G1 X44.727 Y22.990 E29.93273 F1800.000
G1 X46.535 Y23.599 E30.05319
G1 X48.270 Y24.401 E30.17390
G1 X49.908 Y25.387 E30.29461
G1 X51.430 Y26.544 E30.41533
G1 X52.818 Y27.858 E30.53604
G1 X54.055 Y29.315 E30.65676
G1 X55.128 Y30.898 E30.77747
G1 X56.023 Y32.587 E30.89818
G1 X56.731 Y34.363 E31.01890
G1 X57.242 Y36.205 E31.13961
G1 X57.552 Y38.091 E31.26032
G1 X57.655 Y40.000 E31.38104
G1 X57.552 Y41.909 E31.50175
G1 X57.242 Y43.795 E31.62246
G1 X56.731 Y45.637 E31.74318
G1 X56.023 Y47.413 E31.86389
G1 X55.128 Y49.102 E31.98461
G1 X54.055 Y50.685 E32.10532
G1 X52.818 Y52.142 E32.22603
G1 X51.430 Y53.456 E32.34675
G1 X50.852 Y53.895 E32.39254
G1 X51.333 Y54.651 F7800.000
G1 X50.410 Y55.353 E32.46578 F1800.000
G1 X48.689 Y56.388 E32.59261
G1 X46.866 Y57.232 E32.71943
G1 X44.962 Y57.873 E32.84626
G1 X43.001 Y58.305 E32.97308
G1 X41.004 Y58.522 E33.09991
G1 X38.996 Y58.522 E33.22674
G1 X36.999 Y58.305 E33.35356
G1 X35.038 Y57.873 E33.48039
G1 X33.243 Y57.268 E33.59998
G1 X31.310 Y56.388 E33.73409
G1 X29.590 Y55.353 E33.86083
G1 X27.991 Y54.138 E33.98765
G1 X26.533 Y52.756 E34.11448
G1 X25.233 Y51.226 E34.24131
G1 X24.106 Y49.563 E34.36813
G1 X23.165 Y47.789 E34.49496
G1 X22.422 Y45.923 E34.62178
G1 X21.884 Y43.988 E34.74861
G1 X21.559 Y42.006 E34.87544
G1 X21.451 Y40.000 E35.00226
G1 X21.559 Y37.994 E35.12909
G1 X21.884 Y36.012 E35.25591
G1 X22.422 Y34.077 E35.38274
G1 X23.165 Y32.211 E35.50957
G1 X24.106 Y30.437 E35.63639
G1 X25.233 Y28.774 E35.76322
G1 X26.533 Y27.244 E35.89005
G1 X27.991 Y25.862 E36.01687
G1 X29.590 Y24.647 E36.14370
G1 X31.311 Y23.611 E36.27052
G1 X33.134 Y22.768 E36.39735
G1 X35.038 Y22.127 E36.52418
G1 X36.999 Y21.695 E36.65100
G1 X38.996 Y21.478 E36.77783
G1 X41.004 Y21.478 E36.90466
G1 X42.887 Y21.683 E37.02425
G1 X44.964 Y22.127 E37.15836 F1800.000
G1 X46.866 Y22.768 E37.28509
G1 X48.689 Y23.611 E37.41192
G1 X50.410 Y24.647 E37.53875
G1 X52.009 Y25.862 E37.66557
G1 X53.467 Y27.244 E37.79240
G1 X54.767 Y28.774 E37.91922
G1 X55.894 Y30.437 E38.04605
G1 X56.835 Y32.211 E38.17288
G1 X57.578 Y34.077 E38.29970
G1 X58.116 Y36.012 E38.42653
G1 X58.441 Y37.994 E38.55335
G1 X58.549 Y40.000 E38.68018
G1 X58.441 Y42.006 E38.80701
G1 X58.116 Y43.988 E38.93383
G1 X57.578 Y45.923 E39.06066
G1 X56.835 Y47.789 E39.18749
G1 X55.894 Y49.563 E39.31431
G1 X54.767 Y51.226 E39.44114
G1 X53.467 Y52.756 E39.56796
G1 X52.009 Y54.138 E39.69479
G1 X51.393 Y54.606 E39.74364
G1 X50.872 Y54.458 F7800.000
G1 X49.717 Y52.525 F7800.000
G1 X48.909 Y53.139 E39.87954 F1800.000
G1 X47.436 Y54.025 E40.10967
G1 X45.876 Y54.747 E40.33979
G1 X44.224 Y55.301 E40.57308
G1 X42.568 Y55.666 E40.80003
G1 X40.859 Y55.851 E41.03015
G1 X39.117 Y55.849 E41.26344
G1 X37.432 Y55.666 E41.49039
G1 X35.776 Y55.301 E41.71733
G1 X34.191 Y54.768 E41.94131
G1 X32.556 Y54.021 E42.18189
G1 X31.072 Y53.125 E42.41396
G1 X29.723 Y52.099 E42.64091
G1 X28.492 Y50.934 E42.86785
G1 X27.362 Y49.607 E43.10114
G1 X26.398 Y48.184 E43.33127
G1 X25.593 Y46.666 E43.56139
G1 X24.950 Y45.046 E43.79468
G1 X24.496 Y43.413 E44.02163
G1 X24.222 Y41.740 E44.24857
G1 X24.126 Y40.004 E44.48129
G1 X24.218 Y38.284 E44.71197 F1800.000
G1 X24.503 Y36.564 E44.94527
G1 X24.965 Y34.909 E45.17538
G1 X25.593 Y33.334 E45.40232
G1 X26.386 Y31.837 E45.62926
G1 X27.362 Y30.393 E45.86256
G1 X28.475 Y29.083 E46.09268
G1 X29.723 Y27.901 E46.32281
G1 X31.112 Y26.848 E46.55610
G1 X32.564 Y25.975 E46.78304
G1 X34.102 Y25.262 E47.00999
G1 X35.730 Y24.711 E47.24010
G1 X37.432 Y24.334 E47.47339
G1 X39.141 Y24.149 E47.70351
G1 X40.883 Y24.151 E47.93681
G1 X42.544 Y24.336 E48.16057
G1 X44.224 Y24.699 E48.39062
G1 X45.876 Y25.253 E48.62390
G1 X47.436 Y25.975 E48.85403
G1 X48.909 Y26.861 E49.08415
G1 X50.277 Y27.901 E49.31428
G1 X51.525 Y29.083 E49.54440
G1 X52.651 Y30.413 E49.77770
G1 X53.614 Y31.837 E50.00781
G1 X54.407 Y33.334 E50.23475
G1 X55.035 Y34.909 E50.46169
G1 X55.504 Y36.587 E50.69499
G1 X55.782 Y38.284 E50.92511
G1 X55.875 Y40.000 E51.15524
G1 X55.778 Y41.740 E51.38853
G1 X55.497 Y43.436 E51.61864
G1 X55.044 Y45.069 E51.84558
G1 X54.448 Y46.564 E52.06112
G1 X53.602 Y48.184 E52.30576
G1 X52.638 Y49.607 E52.53588
G1 X51.525 Y50.917 E52.76601
G1 X50.277 Y52.099 E52.99613
